**kern	**kern	**dynam
*part1	*part1	*part1
*staff2	*staff1	*
*I"Piano	*	*
*clefF4	*clefG2	*
*k[f#c#]	*k[f#c#]	*
=1	=1	=1
*	*^	*
8GL	4e	8BL	.
8AJ	.	8c#J	.
8GL	4f#	8BL	.
8F#J	.	8AJ	.
8EL	4g	8BL	.
8BBJ	.	8eJ	.
8GGL	4b	8dL	.
8EEJ	.	8gJ	.
*	*v	*v	*
=	=	=
8AAAL	8f#L 8a	.
8AAJ	8AJ	.
8BBB-XL	8eL 8g	.
8BB-XJ	8GJ	.
8BBBnL	8dL 8f#	.
8BBnJ	8F#J	.
8CC#L	8gL 8a	mf
8C#J	8AJ	<
=	=	=
8DDL	8f#L 8dd	.
8DJ	8dJ	.
8AAAL	8gL 8ee	.
8AAJ	8aJ	.
*8ba	*	*
8DDDL	8ddL 8ff#	.
8DDJ	8f#J	.
8FFF#L	8cc#L 8aa	.
8FF#J	8aJ	.
*X8ba	*	*
=	=	=
8BBBL	8aaL 8ccc#	.
8FF#	8dd#XJ	.
8BB	8fff#L	.
8F#J	8aaJ	.
8EEL	8gg#XL 8bb	.
8EJ	8bJ	.
8FFnL	8dd#L 8aa	.
8FnJ	8aJ	.
=	=	=
8GGGL	8bb-XL 8ddd	[ f
8GGJ	8ddJ	.
!	!LO:TX:b:i:t=breit	!
8BB-XL	8ggL	.
8B-XJ	8gJ	.
8AAAL	8ccc#L 8eee	.
8AAJ	8eeJ	.
8EL	8aaL	.
8c#J	8aJ	.
=	=	=
4DDD 4DD	4f# 4a 4dd	.
4FF# 4F#	4d	.
4GGG 4GG	4dd 4gg 4bb-X	.
4D 4d	4b-X	.
=	=	=
2DD 2AA 2D	2A: 2d: 2f#: 2a: 2dd: 2aa: 2ddd:	.
4r	4r	.
==	==	==
*-	*-	*-
!!!system-decoration: {(s1,s2)}
